X: 1263
T: Colonel Rodney
M:C|
L:1/8
R:Reel
B:O'Neill's 1263
N:Collected by J. Kennedy
Z:Transcribed by Trish O'Neil
K:A
c>A (3AAA (eA)ce|eaga fedc|d>B (3BBB (fB)de|fefg afed|
c>A (3AAA (eA)ce|eaga fedc|defg abaf|(3efg (ae) cA Az||
e2(ce) Aece|aAgA fAeg|f2(df) Bfdf|bBaB gBfB|
(3efe (ce) aece|eaga fedc|defg abaf(3efg (ae) cA Az||


